app/component-library/components/Icons/Icon/assets/close.svg

<svg width="24" height="24" viewBox="0 0 24 24" fill="none" xmlns="http://www.w3.org/2000/svg">
<path fill-rule="evenodd" clip-rule="evenodd" d="M4.41859 4.13783C4.60237 3.95406 4.90033 3.95406 5.08411 4.13783L20.1429 19.1967C20.3267 19.3804 20.3267 19.6784 20.1429 19.8622C19.9592 20.0459 19.6612 20.0459 19.4774 19.8622L4.41859 4.80334C4.23482 4.61957 4.23482 4.32161 4.41859 4.13783Z" fill="currentColor"/>
<path fill-rule="evenodd" clip-rule="evenodd" d="M20.1429 4.13783C20.3267 4.32161 20.3267 4.61957 20.1429 4.80334L5.08411 19.8622C4.90033 20.0459 4.60237 20.0459 4.41859 19.8622C4.23482 19.6784 4.23482 19.3804 4.41859 19.1967L19.4774 4.13783C19.6612 3.95406 19.9592 3.95406 20.1429 4.13783Z" fill="currentColor"/>
<path d="M5.08411 4.13783L4.90733 4.31461L4.90733 4.31461L5.08411 4.13783ZM4.41859 4.13783L4.59537 4.31461L4.59537 4.31461L4.41859 4.13783ZM20.1429 19.1967L19.9662 19.3734L20.1429 19.1967ZM19.4774 19.8622L19.6542 19.6854L19.4774 19.8622ZM4.41859 4.80334L4.59537 4.62657L4.59537 4.62657L4.41859 4.80334ZM20.1429 4.80334L20.3197 4.98012L20.1429 4.80334ZM20.1429 4.13783L19.9662 4.31461L19.9662 4.31461L20.1429 4.13783ZM5.08411 19.8622L4.90733 19.6854L4.90733 19.6854L5.08411 19.8622ZM4.41859 19.1967L4.24182 19.0199L4.24182 19.0199L4.41859 19.1967ZM19.4774 4.13783L19.6542 4.31461L19.6542 4.31461L19.4774 4.13783ZM5.26088 3.96106C4.97948 3.67965 4.52322 3.67965 4.24182 3.96106L4.59537 4.31461C4.68152 4.22846 4.82118 4.22846 4.90733 4.31461L5.26088 3.96106ZM20.3197 19.0199L5.26088 3.96106L4.90733 4.31461L19.9662 19.3734L20.3197 19.0199ZM20.3197 20.0389C20.6011 19.7575 20.6011 19.3013 20.3197 19.0199L19.9662 19.3734C20.0523 19.4596 20.0523 19.5992 19.9662 19.6854L20.3197 20.0389ZM19.3006 20.0389C19.582 20.3204 20.0383 20.3204 20.3197 20.0389L19.9662 19.6854C19.88 19.7715 19.7403 19.7715 19.6542 19.6854L19.3006 20.0389ZM4.24182 4.98012L19.3006 20.0389L19.6542 19.6854L4.59537 4.62657L4.24182 4.98012ZM4.24182 3.96106C3.96041 4.24246 3.96041 4.69871 4.24182 4.98012L4.59537 4.62657C4.50923 4.54042 4.50923 4.40075 4.59537 4.31461L4.24182 3.96106ZM20.3197 4.98012C20.6011 4.69871 20.6011 4.24246 20.3197 3.96106L19.9662 4.31461C20.0523 4.40075 20.0523 4.54042 19.9662 4.62657L20.3197 4.98012ZM5.26088 20.0389L20.3197 4.98012L19.9662 4.62657L4.90733 19.6854L5.26088 20.0389ZM4.24182 20.0389C4.52322 20.3203 4.97948 20.3203 5.26088 20.0389L4.90733 19.6854C4.82118 19.7715 4.68151 19.7715 4.59537 19.6854L4.24182 20.0389ZM4.24182 19.0199C3.96041 19.3013 3.96041 19.7575 4.24182 20.0389L4.59537 19.6854C4.50923 19.5992 4.50923 19.4596 4.59537 19.3734L4.24182 19.0199ZM19.3006 3.96106L4.24182 19.0199L4.59537 19.3734L19.6542 4.31461L19.3006 3.96106ZM20.3197 3.96106C20.0383 3.67965 19.582 3.67965 19.3006 3.96106L19.6542 4.31461C19.7403 4.22846 19.88 4.22846 19.9662 4.31461L20.3197 3.96106Z" fill="currentColor"/>
</svg>

<svg xmlns="http://www.w3.org/2000/svg" width="24" height="24" viewBox="0 0 24 24" fill="none"><path fill-rule="evenodd" clip-rule="evenodd" d="M4.419 4.138a.47.47 0 0 1 .665 0l15.059 15.059a.47.47 0 1 1-.666.665L4.42 4.803a.47.47 0 0 1 0-.665z" fill="currentColor"/><path fill-rule="evenodd" clip-rule="evenodd" d="M20.143 4.138a.47.47 0 0 1 0 .665L5.084 19.863a.47.47 0 0 1-.665-.666l15.058-15.06a.47.47 0 0 1 .666 0z" fill="currentColor"/><path d="m5.084 4.138-.177.177.177-.177zm-.665 0 .176.177-.176-.177zm15.724 15.059-.177.176.177-.176zm-.666.665.177-.177-.177.177zM4.42 4.803l.176-.176-.176.176zm15.724 0 .177.177-.177-.177zm0-.665-.177.177.177-.177zM5.084 19.862l-.177-.177.177.177zm-.665-.665-.177-.177.177.177zm15.058-15.06.177.178-.177-.177zM5.261 3.962a.72.72 0 0 0-1.02 0l.354.354a.22.22 0 0 1 .312 0l.354-.354zM20.32 19.02 5.26 3.96l-.353.354 15.06 15.058.353-.353zm0 1.019a.72.72 0 0 0 0-1.02l-.354.354a.22.22 0 0 1 0 .312l.354.354zm-1.02 0a.72.72 0 0 0 1.02 0l-.354-.354a.22.22 0 0 1-.312 0l-.353.354zM4.243 4.98 19.3 20.04l.353-.354L4.595 4.627l-.353.353zm0-1.019a.72.72 0 0 0 0 1.02l.353-.354a.22.22 0 0 1 0-.312l-.353-.354zm16.078 1.02a.72.72 0 0 0 0-1.02l-.354.354a.22.22 0 0 1 0 .312l.354.353zM5.26 20.038 20.32 4.98l-.354-.353L4.907 19.685l.354.354zm-1.018 0a.72.72 0 0 0 1.019 0l-.354-.354a.22.22 0 0 1-.312 0l-.353.354zm0-1.02a.72.72 0 0 0 0 1.02l.353-.354a.22.22 0 0 1 0-.312l-.353-.353zM19.3 3.962 4.24 19.02l.354.353 15.06-15.058-.354-.354zm1.019 0a.72.72 0 0 0-1.02 0l.354.354a.22.22 0 0 1 .312 0l.354-.354z" fill="currentColor"/></svg>
